images/favicon.svg

<svg width="25" height="25" viewBox="0 0 25 25" fill="none" xmlns="http://www.w3.org/2000/svg">
<style>
  path {
    fill:#13171A;
    fill:color(display-p3 0.0745 0.0902 0.1020);
    fill-opacity:1;
    stroke:#13171A;
    stroke:color(display-p3 0.0745 0.0902 0.1020);
    stroke-opacity:1;
  }
  @media (prefers-color-scheme: dark) {
    path {
      <!-- fill: #D4E157; -->
    }
  }
</style>
  <path fill-rule="evenodd" clip-rule="evenodd" d="M11.0318 1.20077C11.0318 0.556347 11.5542 0.0339355 12.1986 0.0339355H17.1644C17.8088 0.0339355 18.3312 0.556347 18.3312 1.20077V2.86392C18.3312 3.50834 18.8536 4.03076 19.498 4.03076H24.1703C24.8147 4.03076 25.3371 4.55317 25.3371 5.19759V9.36847C25.3371 10.0129 24.8147 10.5353 24.1703 10.5353H22.5071C21.8626 10.5353 21.3402 11.0577 21.3402 11.7021V16.6679C21.3402 17.3124 21.8626 17.8348 22.5071 17.8348H24.1703C24.8147 17.8348 25.3371 18.3572 25.3371 19.0016V23.1725C25.3371 23.8169 24.8147 24.3393 24.1703 24.3393H5.1927C4.54828 24.3393 4.02587 23.8169 4.02587 23.1725V19.0016C4.02587 18.3572 3.50345 17.8347 2.85903 17.8347H1.19589C0.551464 17.8347 0.0290527 17.3123 0.0290527 16.6679V11.7021C0.0290527 11.0577 0.551465 10.5353 1.19589 10.5353H2.85903C3.50346 10.5353 4.02587 10.0129 4.02587 9.36846V5.19759C4.02587 4.55317 4.54828 4.03076 5.19271 4.03076H9.86492C10.5093 4.03076 11.0318 3.50834 11.0318 2.86392V1.20077Z" fill="#7E858B" style="fill:#7E858B;fill:color(display-p3 0.4941 0.5216 0.5451);fill-opacity:1;"/>
  <path d="M11.8116 7.58334V7.48334H11.7116C10.7079 7.48334 9.90747 7.75213 9.32322 8.3012L9.3917 8.37407L9.32328 8.30114C8.73464 8.85342 8.45029 9.70344 8.45029 10.8289V16.7155C8.45029 17.8402 8.73466 18.6901 9.32322 19.2432C9.90747 19.7923 10.7079 20.0611 11.7116 20.0611H11.8116V19.9611V18.9649V18.8672L11.7139 18.865C11.0536 18.8499 10.5759 18.6559 10.2661 18.2963C9.95405 17.934 9.78819 17.384 9.78819 16.6212V10.9259C9.78819 10.1627 9.95284 9.6104 10.266 9.2483C10.5772 8.8885 11.0538 8.69452 11.714 8.67818L11.8116 8.67576V8.57821V7.58334Z" stroke-width="0.2"/>
  <path d="M15.5016 7.58333V7.48333H15.4016C14.398 7.48333 13.5976 7.75211 13.0133 8.30114C12.4238 8.85342 12.139 9.70344 12.139 10.8289L12.139 16.7155L12.139 16.7156C12.1399 17.8402 12.4247 18.6902 13.0133 19.2432C13.5975 19.7923 14.3979 20.0611 15.4016 20.0611H15.5016V19.9611V18.9649V18.8672L15.4039 18.865C14.7438 18.8499 14.2672 18.6559 13.9561 18.2961C13.6429 17.934 13.4783 17.3842 13.4783 16.6212V10.9258C13.4783 10.1612 13.6329 9.61007 13.9502 9.24888C14.2666 8.88873 14.7436 8.69956 15.4049 8.67815L15.5016 8.67502V8.5782V7.58333Z" stroke-width="0.2"/>
  <path d="M19.1905 7.58333V7.48333H19.0905C18.0877 7.48333 17.2877 7.75212 16.7035 8.30114C16.114 8.85342 15.8292 9.70344 15.8292 10.8289V16.7155C15.8292 17.8402 16.114 18.6902 16.7035 19.2433C17.2886 19.7923 18.0885 20.0611 19.0905 20.0611H19.1905V19.9611V18.9649V18.8672L19.0928 18.865C18.4341 18.8499 17.9574 18.6559 17.6462 18.2961C17.333 17.934 17.1684 17.3842 17.1684 16.6212V10.9258C17.1684 10.1627 17.3331 9.61039 17.6462 9.24829C17.9574 8.88847 18.4341 8.69451 19.093 8.67817L19.1905 8.67575V8.5782V7.58333Z" stroke-width="0.2"/>
</svg>

<svg width="25" height="25" fill="none" xmlns="http://www.w3.org/2000/svg">
<style>
path{
  fill:#13171a;
  fill:color(display-p3 .0745 .0902 .102);
  fill-opacity:1;
  stroke:#13171a;
  stroke:color(display-p3 .0745 .0902 .102);
  stroke-opacity:1
}
</style>
  <path fill-rule="evenodd" clip-rule="evenodd" d="M11.032 1.2c0-.644.522-1.166 1.167-1.166h4.965c.645 0 1.167.522 1.167 1.167v1.663c0 .644.523 1.167 1.167 1.167h4.672c.645 0 1.167.522 1.167 1.167v4.17c0 .645-.522 1.167-1.167 1.167h-1.663c-.644 0-1.167.523-1.167 1.167v4.966c0 .644.523 1.167 1.167 1.167h1.663c.645 0 1.167.522 1.167 1.167v4.17c0 .645-.522 1.167-1.167 1.167H5.193a1.167 1.167 0 0 1-1.167-1.166v-4.171c0-.645-.523-1.167-1.167-1.167H1.196a1.167 1.167 0 0 1-1.167-1.167v-4.966c0-.644.522-1.167 1.167-1.167h1.663c.644 0 1.167-.522 1.167-1.167v-4.17c0-.645.522-1.167 1.167-1.167h4.672c.644 0 1.167-.523 1.167-1.167V1.2Z" fill="#7E858B" style="fill:color(display-p3 .4941 .5216 .5451);fill-opacity:1"/><path d="M11.812 7.583v-.1h-.1c-1.004 0-1.805.27-2.389.818l.069.073-.069-.073c-.588.552-.873 1.402-.873 2.528v5.886c0 1.125.285 1.975.873 2.528.584.55 1.385.818 2.389.818h.1V18.867l-.098-.002c-.66-.015-1.138-.21-1.448-.569-.312-.362-.478-.912-.478-1.675v-5.695c0-.763.165-1.316.478-1.678.311-.36.788-.553 1.448-.57l.098-.002V7.583ZM15.502 7.583v-.1h-.1c-1.004 0-1.804.27-2.389.818-.59.552-.874 1.402-.874 2.528v5.886c0 1.125.286 1.975.874 2.528.585.55 1.385.818 2.389.818h.1V18.867l-.098-.002c-.66-.015-1.137-.21-1.448-.569-.313-.362-.478-.912-.478-1.675v-5.695c0-.765.155-1.316.472-1.677.317-.36.794-.55 1.455-.57l.097-.004V7.583ZM19.19 7.583v-.1h-.1c-1.002 0-1.802.27-2.387.818-.589.552-.874 1.402-.874 2.528v5.886c0 1.125.285 1.975.874 2.528.586.55 1.386.818 2.387.818h.1V18.867l-.097-.002c-.659-.015-1.136-.21-1.447-.569-.313-.362-.478-.912-.478-1.675v-5.695c0-.763.165-1.316.478-1.678.311-.36.788-.553 1.447-.57l.098-.002V7.583Z" stroke-width=".2"/>
</svg>
